static/img/kroki/f074f7df3f6154a7c583f2dc2531f973.svg

<?xml version="1.0" encoding="us-ascii" standalone="no"?><svg xmlns="http://www.w3.org/2000/svg" xmlns:xlink="http://www.w3.org/1999/xlink" contentStyleType="text/css" height="374px" preserveAspectRatio="none" style="width:445px;height:374px;" version="1.1" viewBox="0 0 445 374" width="445px" zoomAndPan="magnify"><defs/><g><!--class azure_sql_server_managed_instance_database--><g id="elem_azure_sql_server_managed_instance_database"><rect codeLine="23" fill="#3D176E" height="39.7891" id="azure_sql_server_managed_instance_database" rx="2.5" ry="2.5" style="stroke:#000D19;stroke-width:0.5;" width="431" x="7" y="328.58"/><ellipse cx="22" cy="348.4745" fill="#ADD1B2" rx="11" ry="11" style="stroke:#181818;stroke-width:1.0;"/><path d="M24.9688,354.1152 Q24.3906,354.412 23.75,354.5527 Q23.1094,354.7089 22.4063,354.7089 Q19.9063,354.7089 18.5781,353.0683 Q17.2656,351.412 17.2656,348.287 Q17.2656,345.162 18.5781,343.5058 Q19.9063,341.8495 22.4063,341.8495 Q23.1094,341.8495 23.75,342.0058 Q24.4063,342.162 24.9688,342.4589 L24.9688,345.1777 Q24.3438,344.5995 23.75,344.3339 Q23.1563,344.0527 22.5313,344.0527 Q21.1875,344.0527 20.5,345.1308 Q19.8125,346.1933 19.8125,348.287 Q19.8125,350.3808 20.5,351.4589 Q21.1875,352.5214 22.5313,352.5214 Q23.1563,352.5214 23.75,352.2558 Q24.3438,351.9745 24.9688,351.3964 L24.9688,354.1152 Z " fill="#000000"/><text fill="#D9B8FF" font-family="Helvetica" font-size="17" lengthAdjust="spacing" textLength="389" x="41" y="354.3598">azure_sql_server_managed_instance_database</text></g><!--class database--><g id="elem_database"><rect codeLine="26" fill="#3D176E" height="39.7891" id="database" rx="2.5" ry="2.5" style="stroke:#000D19;stroke-width:0.5;" width="117" x="68" y="167.79"/><ellipse cx="83" cy="187.6845" fill="#ADD1B2" rx="11" ry="11" style="stroke:#181818;stroke-width:1.0;"/><path d="M85.9688,193.3252 Q85.3906,193.622 84.75,193.7627 Q84.1094,193.9189 83.4063,193.9189 Q80.9063,193.9189 79.5781,192.2783 Q78.2656,190.622 78.2656,187.497 Q78.2656,184.372 79.5781,182.7158 Q80.9063,181.0595 83.4063,181.0595 Q84.1094,181.0595 84.75,181.2158 Q85.4063,181.372 85.9688,181.6689 L85.9688,184.3877 Q85.3438,183.8095 84.75,183.5439 Q84.1563,183.2627 83.5313,183.2627 Q82.1875,183.2627 81.5,184.3408 Q80.8125,185.4033 80.8125,187.497 Q80.8125,189.5908 81.5,190.6689 Q82.1875,191.7314 83.5313,191.7314 Q84.1563,191.7314 84.75,191.4658 Q85.3438,191.1845 85.9688,190.6064 L85.9688,193.3252 Z " fill="#000000"/><text fill="#D9B8FF" font-family="Helvetica" font-size="17" lengthAdjust="spacing" textLength="75" x="102" y="193.5698">database</text></g><!--class microsoft_resource--><g id="elem_microsoft_resource"><rect codeLine="29" fill="#3D176E" height="39.7891" id="microsoft_resource" rx="2.5" ry="2.5" style="stroke:#000D19;stroke-width:0.5;" width="200" x="220.5" y="167.79"/><ellipse cx="235.5" cy="187.6845" fill="#ADD1B2" rx="11" ry="11" style="stroke:#181818;stroke-width:1.0;"/><path d="M238.4688,193.3252 Q237.8906,193.622 237.25,193.7627 Q236.6094,193.9189 235.9063,193.9189 Q233.4063,193.9189 232.0781,192.2783 Q230.7656,190.622 230.7656,187.497 Q230.7656,184.372 232.0781,182.7158 Q233.4063,181.0595 235.9063,181.0595 Q236.6094,181.0595 237.25,181.2158 Q237.9063,181.372 238.4688,181.6689 L238.4688,184.3877 Q237.8438,183.8095 237.25,183.5439 Q236.6563,183.2627 236.0313,183.2627 Q234.6875,183.2627 234,184.3408 Q233.3125,185.4033 233.3125,187.497 Q233.3125,189.5908 234,190.6689 Q234.6875,191.7314 236.0313,191.7314 Q236.6563,191.7314 237.25,191.4658 Q237.8438,191.1845 238.4688,190.6064 L238.4688,193.3252 Z " fill="#000000"/><text fill="#D9B8FF" font-family="Helvetica" font-size="17" lengthAdjust="spacing" textLength="158" x="254.5" y="193.5698">microsoft_resource</text></g><!--class resource--><g id="elem_resource"><rect codeLine="32" fill="#3D176E" height="39.7891" id="resource" rx="2.5" ry="2.5" style="stroke:#000D19;stroke-width:0.5;" width="113" x="166" y="7"/><ellipse cx="181" cy="26.8945" fill="#ADD1B2" rx="11" ry="11" style="stroke:#181818;stroke-width:1.0;"/><path d="M183.9688,32.5352 Q183.3906,32.832 182.75,32.9727 Q182.1094,33.1289 181.4063,33.1289 Q178.9063,33.1289 177.5781,31.4883 Q176.2656,29.832 176.2656,26.707 Q176.2656,23.582 177.5781,21.9258 Q178.9063,20.2695 181.4063,20.2695 Q182.1094,20.2695 182.75,20.4258 Q183.4063,20.582 183.9688,20.8789 L183.9688,23.5977 Q183.3438,23.0195 182.75,22.7539 Q182.1563,22.4727 181.5313,22.4727 Q180.1875,22.4727 179.5,23.5508 Q178.8125,24.6133 178.8125,26.707 Q178.8125,28.8008 179.5,29.8789 Q180.1875,30.9414 181.5313,30.9414 Q182.1563,30.9414 182.75,30.6758 Q183.3438,30.3945 183.9688,29.8164 L183.9688,32.5352 Z " fill="#000000"/><text fill="#D9B8FF" font-family="Helvetica" font-size="17" lengthAdjust="spacing" textLength="71" x="200" y="32.7798">resource</text></g><!--reverse link database to azure_sql_server_managed_instance_database--><g id="link_database_azure_sql_server_managed_instance_database"><path codeLine="35" d="M147.3921,223.2441 C165.8421,253.7641 192.4,297.69 210.88,328.25 " fill="none" id="database-backto-azure_sql_server_managed_instance_database" style="stroke:#FFAF37;stroke-width:2.0;"/><polygon fill="none" points="138.08,207.84,142.2574,226.3481,152.5268,220.14,138.08,207.84" style="stroke:#FFAF37;stroke-width:2.0;"/></g><!--reverse link microsoft_resource to azure_sql_server_managed_instance_database--><g id="link_microsoft_resource_azure_sql_server_managed_instance_database"><path codeLine="36" d="M299.225,223.1567 C280.385,253.6767 253.23,297.69 234.36,328.25 " fill="none" id="microsoft_resource-backto-azure_sql_server_managed_instance_database" style="stroke:#FFAF37;stroke-width:2.0;"/><polygon fill="none" points="308.68,207.84,294.1194,220.0051,304.3306,226.3084,308.68,207.84" style="stroke:#FFAF37;stroke-width:2.0;"/></g><!--reverse link resource to database--><g id="link_resource_database"><path codeLine="37" d="M201.6079,62.4541 C183.1579,92.9741 156.6,136.9 138.12,167.46 " fill="none" id="resource-backto-database" style="stroke:#FFAF37;stroke-width:2.0;"/><polygon fill="none" points="210.92,47.05,196.4732,59.35,206.7426,65.5581,210.92,47.05" style="stroke:#FFAF37;stroke-width:2.0;"/></g><!--reverse link resource to microsoft_resource--><g id="link_resource_microsoft_resource"><path codeLine="38" d="M243.775,62.3667 C262.615,92.8867 289.77,136.9 308.64,167.46 " fill="none" id="resource-backto-microsoft_resource" style="stroke:#FFAF37;stroke-width:2.0;"/><polygon fill="none" points="234.32,47.05,238.6694,65.5184,248.8806,59.2151,234.32,47.05" style="stroke:#FFAF37;stroke-width:2.0;"/></g><!--SRC=[bP1FJm913CNl-oacuKm24WKIBq1Yz4ACUDzqTpemOMS6sou4rE-k299Xbp_X-jwlVQ-TMOqAtKBMog7Ba3ZXkVKB871gG1HMer04KWrZm7IwLVCfUBaAZC6XUiPYYM9pg1BlCvlFFJAhkyWQGZwVKYYztgqN0i-_5dg9g541p0CHibaf69NH_QndJ9MiBcrqTBlxW3Kia4RQ8wrMIxVxLUHgrCMx3yJ4Rb2ruwUDWs2jPYtYZxhOSaj49Mk7_ljdExw2rjPFrNsalUqwaKSwqYSpq66rfGqK7CUm866GzG97jQkmtzEcUn9-EGSd-VPr2ZObOSeVHSf8IwJKWOSfwjHw5l0vfXe4Cc1KdqdolPywfJcRK-1W92NaK59-v1vhX_d7hsQpUKE9v4JApJiga-VqUbJo0m00]--></g></svg>

<svg xmlns="http://www.w3.org/2000/svg" width="445" height="374" viewBox="0 0 445 374"><rect width="431" height="39.789" x="7" y="328.58" fill="#3D176E" rx="2.5" ry="2.5" style="stroke:#000d19;stroke-width:.5"/><circle cx="22" cy="348.474" r="11" fill="#ADD1B2" style="stroke:#181818;stroke-width:1"/><path d="M24.969 354.115q-.578.297-1.219.438-.64.156-1.344.156-2.5 0-3.828-1.64-1.312-1.657-1.312-4.782t1.312-4.781q1.328-1.656 3.828-1.656.703 0 1.344.156.656.156 1.219.453v2.719q-.625-.579-1.219-.844-.594-.281-1.219-.281-1.343 0-2.031 1.078-.687 1.062-.687 3.156t.687 3.172q.688 1.062 2.031 1.062.625 0 1.219-.265.594-.281 1.219-.86z"/><text x="41" y="354.36" fill="#D9B8FF" font-family="Helvetica" font-size="17" textLength="389">azure_sql_server_managed_instance_database</text><rect width="117" height="39.789" x="68" y="167.79" fill="#3D176E" rx="2.5" ry="2.5" style="stroke:#000d19;stroke-width:.5"/><circle cx="83" cy="187.685" r="11" fill="#ADD1B2" style="stroke:#181818;stroke-width:1"/><path d="M85.969 193.325q-.578.297-1.219.438-.64.156-1.344.156-2.5 0-3.828-1.64-1.312-1.657-1.312-4.782t1.312-4.781q1.328-1.656 3.828-1.656.703 0 1.344.156.656.156 1.219.453v2.719q-.625-.578-1.219-.844-.594-.281-1.219-.281-1.344 0-2.031 1.078-.687 1.062-.687 3.156t.687 3.172q.688 1.062 2.031 1.062.625 0 1.219-.265.594-.281 1.219-.86z"/><text x="102" y="193.57" fill="#D9B8FF" font-family="Helvetica" font-size="17" textLength="75">database</text><rect width="200" height="39.789" x="220.5" y="167.79" fill="#3D176E" rx="2.5" ry="2.5" style="stroke:#000d19;stroke-width:.5"/><circle cx="235.5" cy="187.685" r="11" fill="#ADD1B2" style="stroke:#181818;stroke-width:1"/><path d="M238.469 193.325q-.578.297-1.219.438-.64.156-1.344.156-2.5 0-3.828-1.64-1.312-1.657-1.312-4.782t1.312-4.781q1.328-1.656 3.828-1.656.703 0 1.344.156.656.156 1.219.453v2.719q-.625-.578-1.219-.844-.594-.281-1.219-.281-1.344 0-2.031 1.078-.687 1.062-.687 3.156t.687 3.172q.688 1.062 2.031 1.062.625 0 1.219-.265.594-.281 1.219-.86z"/><text x="254.5" y="193.57" fill="#D9B8FF" font-family="Helvetica" font-size="17" textLength="158">microsoft_resource</text><rect width="113" height="39.789" x="166" y="7" fill="#3D176E" rx="2.5" ry="2.5" style="stroke:#000d19;stroke-width:.5"/><circle cx="181" cy="26.895" r="11" fill="#ADD1B2" style="stroke:#181818;stroke-width:1"/><path d="M183.969 32.535q-.578.297-1.219.438-.64.156-1.344.156-2.5 0-3.828-1.64-1.312-1.657-1.312-4.782t1.312-4.781q1.328-1.656 3.828-1.656.703 0 1.344.156.656.156 1.219.453v2.719q-.625-.578-1.219-.844-.594-.281-1.219-.281-1.344 0-2.031 1.078-.687 1.062-.687 3.156t.687 3.172q.688 1.062 2.031 1.062.625 0 1.219-.265.594-.281 1.219-.86z"/><text x="200" y="32.78" fill="#D9B8FF" font-family="Helvetica" font-size="17" textLength="71">resource</text><g fill="none"><path d="M147.392 223.244c18.45 30.52 45.008 74.446 63.488 105.006" style="stroke:#ffaf37;stroke-width:2"/><path d="m138.08 207.84 4.177 18.508 10.27-6.208z" style="stroke:#ffaf37;stroke-width:2"/></g><path fill="none" d="M299.225 223.157c-18.84 30.52-45.995 74.533-64.865 105.093m74.32-120.41-14.56 12.165 10.21 6.303z" style="stroke:#ffaf37;stroke-width:2"/><g fill="none"><path d="M201.608 62.454C183.158 92.974 156.6 136.9 138.12 167.46" style="stroke:#ffaf37;stroke-width:2"/><path d="m210.92 47.05-14.447 12.3 10.27 6.208z" style="stroke:#ffaf37;stroke-width:2"/></g><path fill="none" d="M243.775 62.367c18.84 30.52 45.995 74.533 64.865 105.093M234.32 47.05l4.35 18.468 10.21-6.303z" style="stroke:#ffaf37;stroke-width:2"/></svg>
